en/_assets/datalens/heatmap.svg

<?xml version="1.0" encoding="UTF-8"?>
<svg xmlns="http://www.w3.org/2000/svg" xmlns:xlink="http://www.w3.org/1999/xlink" width="25" height="25" viewBox="0 0 25 25" version="1.1">
<g id="surface1">
<path style="fill-rule:nonzero;fill:rgb(79.607843%,89.019608%,98.823529%);fill-opacity:1;stroke-width:1;stroke-linecap:butt;stroke-linejoin:miter;stroke:rgb(79.607843%,89.019608%,98.823529%);stroke-opacity:1;stroke-miterlimit:4;" d="M 15.49375 15.004063 L 14.509687 16.999063 Z M 15.49375 15.004063 " transform="matrix(0.186567,0,0,0.18797,0,0)"/>
<path style="fill-rule:nonzero;fill:rgb(79.607843%,89.019608%,98.823529%);fill-opacity:1;stroke-width:1;stroke-linecap:butt;stroke-linejoin:miter;stroke:rgb(79.607843%,89.019608%,98.823529%);stroke-opacity:1;stroke-miterlimit:4;" d="M 120.495312 15.004063 L 121.500312 16.999063 Z M 120.495312 15.004063 " transform="matrix(0.186567,0,0,0.18797,0,0)"/>
<path style="fill-rule:nonzero;fill:rgb(79.607843%,89.019608%,98.823529%);fill-opacity:1;stroke-width:1;stroke-linecap:butt;stroke-linejoin:miter;stroke:rgb(79.607843%,89.019608%,98.823529%);stroke-opacity:1;stroke-miterlimit:4;" d="M 68.5075 50.997188 L 69.491562 52.992188 Z M 68.5075 50.997188 " transform="matrix(0.186567,0,0,0.18797,0,0)"/>
<path style="fill-rule:nonzero;fill:rgb(79.607843%,89.019608%,98.823529%);fill-opacity:1;stroke-width:1;stroke-linecap:butt;stroke-linejoin:miter;stroke:rgb(79.607843%,89.019608%,98.823529%);stroke-opacity:1;stroke-miterlimit:4;" d="M 14.509687 121.009219 L 15.49375 123.004219 Z M 14.509687 121.009219 " transform="matrix(0.186567,0,0,0.18797,0,0)"/>
<path style="fill-rule:nonzero;fill:rgb(79.607843%,89.019608%,98.823529%);fill-opacity:1;stroke-width:1;stroke-linecap:butt;stroke-linejoin:miter;stroke:rgb(79.607843%,89.019608%,98.823529%);stroke-opacity:1;stroke-miterlimit:4;" d="M 121.500312 121.009219 L 120.495312 123.004219 Z M 121.500312 121.009219 " transform="matrix(0.186567,0,0,0.18797,0,0)"/>
<path style="fill-rule:nonzero;fill:rgb(100%,100%,100%);fill-opacity:1;stroke-width:1;stroke-linecap:butt;stroke-linejoin:miter;stroke:rgb(100%,100%,100%);stroke-opacity:1;stroke-miterlimit:4;" d="M 0 0 L 134 0 L 134 133 L 0 133 Z M 18.00625 14.006563 L 15.99625 15.004063 L 13.002187 18.994063 L 13.002187 119.990938 L 14.007187 122.006719 L 18.00625 124.001719 L 119.00875 124.001719 L 120.997812 123.004219 L 123.007812 119.990938 L 123.007812 18.994063 L 122.002812 16.999063 L 119.00875 14.006563 Z M 18.00625 14.006563 " transform="matrix(0.186567,0,0,0.18797,0,0)"/>
<path style="fill-rule:nonzero;fill:rgb(100%,100%,100%);fill-opacity:1;stroke-width:1;stroke-linecap:butt;stroke-linejoin:miter;stroke:rgb(100%,100%,100%);stroke-opacity:1;stroke-miterlimit:4;" d="M 19.995312 21.009844 L 81.99125 21.508594 L 72.506562 43.993906 L 19.995312 23.004844 Z M 19.995312 21.009844 " transform="matrix(0.186567,0,0,0.18797,0,0)"/>
<path style="fill-rule:nonzero;fill:rgb(100%,100%,100%);fill-opacity:1;stroke-width:1;stroke-linecap:butt;stroke-linejoin:miter;stroke:rgb(100%,100%,100%);stroke-opacity:1;stroke-miterlimit:4;" d="M 90.994375 21.009844 L 115.99375 21.009844 L 115.99375 94.991094 L 69.01 76.994531 Z M 90.994375 21.009844 " transform="matrix(0.186567,0,0,0.18797,0,0)"/>
<path style="fill-rule:nonzero;fill:rgb(100%,100%,100%);fill-opacity:1;stroke-width:1;stroke-linecap:butt;stroke-linejoin:miter;stroke:rgb(100%,100%,100%);stroke-opacity:1;stroke-miterlimit:4;" d="M 20.497812 32.003125 L 65.4925 49.999688 L 69.01 52.493438 L 56.007812 86.990313 L 30.505937 77.992031 L 19.995312 72.505781 Z M 20.497812 32.003125 " transform="matrix(0.186567,0,0,0.18797,0,0)"/>
<path style="fill-rule:nonzero;fill:rgb(100%,100%,100%);fill-opacity:1;stroke-width:1;stroke-linecap:butt;stroke-linejoin:miter;stroke:rgb(100%,100%,100%);stroke-opacity:1;stroke-miterlimit:4;" d="M 19.995312 83.000313 L 52.00875 94.991094 L 43.989687 116.998438 L 19.995312 116.998438 Z M 19.995312 83.000313 " transform="matrix(0.186567,0,0,0.18797,0,0)"/>
<path style="fill-rule:nonzero;fill:rgb(100%,100%,100%);fill-opacity:1;stroke-width:1;stroke-linecap:butt;stroke-linejoin:miter;stroke:rgb(100%,100%,100%);stroke-opacity:1;stroke-miterlimit:4;" d="M 64.99 84.995313 L 68.5075 84.995313 L 115.99375 104.010156 L 115.99375 116.499688 L 115.49125 116.998438 L 52.992812 116.998438 Z M 64.99 84.995313 " transform="matrix(0.186567,0,0,0.18797,0,0)"/>
<path style="fill-rule:nonzero;fill:rgb(33.333333%,65.098039%,96.862745%);fill-opacity:1;stroke-width:1;stroke-linecap:butt;stroke-linejoin:miter;stroke:rgb(33.333333%,65.098039%,96.862745%);stroke-opacity:1;stroke-miterlimit:4;" d="M 18.50875 14.006563 L 85.00625 14.505313 L 18.50875 15.004063 Z M 18.50875 14.006563 " transform="matrix(0.186567,0,0,0.18797,0,0)"/>
<path style="fill-rule:nonzero;fill:rgb(33.333333%,65.098039%,96.862745%);fill-opacity:1;stroke-width:1;stroke-linecap:butt;stroke-linejoin:miter;stroke:rgb(33.333333%,65.098039%,96.862745%);stroke-opacity:1;stroke-miterlimit:4;" d="M 93.506875 14.006563 L 118.00375 14.505313 L 93.506875 15.004063 Z M 93.506875 14.006563 " transform="matrix(0.186567,0,0,0.18797,0,0)"/>
<path style="fill-rule:nonzero;fill:rgb(33.333333%,65.098039%,96.862745%);fill-opacity:1;stroke-width:1;stroke-linecap:butt;stroke-linejoin:miter;stroke:rgb(33.333333%,65.098039%,96.862745%);stroke-opacity:1;stroke-miterlimit:4;" d="M 122.505312 18.994063 L 123.007812 97.505625 L 122.002812 97.505625 Z M 122.505312 18.994063 " transform="matrix(0.186567,0,0,0.18797,0,0)"/>
<path style="fill-rule:nonzero;fill:rgb(33.333333%,65.098039%,96.862745%);fill-opacity:1;stroke-width:1;stroke-linecap:butt;stroke-linejoin:miter;stroke:rgb(33.333333%,65.098039%,96.862745%);stroke-opacity:1;stroke-miterlimit:4;" d="M 18.990312 19.991563 L 82.49375 19.991563 L 82.99625 21.508594 L 81.509687 21.009844 L 20.497812 21.009844 L 19.995312 22.506094 L 20.497812 24.002344 Z M 18.990312 19.991563 " transform="matrix(0.186567,0,0,0.18797,0,0)"/>
<path style="fill-rule:nonzero;fill:rgb(33.333333%,65.098039%,96.862745%);fill-opacity:1;stroke-width:1;stroke-linecap:butt;stroke-linejoin:miter;stroke:rgb(33.333333%,65.098039%,96.862745%);stroke-opacity:1;stroke-miterlimit:4;" d="M 91.496875 19.991563 L 116.99875 19.991563 L 116.99875 96.009375 L 115.009687 95.489844 L 115.99375 94.492344 L 115.99375 21.009844 L 91.496875 21.009844 L 90.491875 22.007344 Z M 91.496875 19.991563 " transform="matrix(0.186567,0,0,0.18797,0,0)"/>
<path style="fill-rule:nonzero;fill:rgb(33.333333%,65.098039%,96.862745%);fill-opacity:1;stroke-width:1;stroke-linecap:butt;stroke-linejoin:miter;stroke:rgb(33.333333%,65.098039%,96.862745%);stroke-opacity:1;stroke-miterlimit:4;" d="M 13.504687 28.989844 L 14.007187 70.49 L 13.002187 70.49 Z M 13.504687 28.989844 " transform="matrix(0.186567,0,0,0.18797,0,0)"/>
<path style="fill-rule:nonzero;fill:rgb(33.333333%,65.098039%,96.862745%);fill-opacity:1;stroke-width:1;stroke-linecap:butt;stroke-linejoin:miter;stroke:rgb(33.333333%,65.098039%,96.862745%);stroke-opacity:1;stroke-miterlimit:4;" d="M 19.492812 31.005625 L 19.995312 73.503281 L 18.990312 73.503281 Z M 19.492812 31.005625 " transform="matrix(0.186567,0,0,0.18797,0,0)"/>
<path style="fill-rule:nonzero;fill:rgb(33.333333%,65.098039%,96.862745%);fill-opacity:1;stroke-width:1;stroke-linecap:butt;stroke-linejoin:miter;stroke:rgb(33.333333%,65.098039%,96.862745%);stroke-opacity:1;stroke-miterlimit:4;" d="M 73.490625 42.996406 L 72.506562 44.991406 Z M 73.490625 42.996406 " transform="matrix(0.186567,0,0,0.18797,0,0)"/>
<path style="fill-rule:nonzero;fill:rgb(33.333333%,65.098039%,96.862745%);fill-opacity:1;stroke-width:1;stroke-linecap:butt;stroke-linejoin:miter;stroke:rgb(33.333333%,65.098039%,96.862745%);stroke-opacity:1;stroke-miterlimit:4;" d="M 13.504687 79.010312 L 14.007187 118.494688 L 13.002187 118.494688 Z M 13.504687 79.010312 " transform="matrix(0.186567,0,0,0.18797,0,0)"/>
<path style="fill-rule:nonzero;fill:rgb(33.333333%,65.098039%,96.862745%);fill-opacity:1;stroke-width:1;stroke-linecap:butt;stroke-linejoin:miter;stroke:rgb(33.333333%,65.098039%,96.862745%);stroke-opacity:1;stroke-miterlimit:4;" d="M 19.492812 82.002813 L 19.995312 116.998438 L 43.989687 117.497188 L 18.990312 117.995938 Z M 19.492812 82.002813 " transform="matrix(0.186567,0,0,0.18797,0,0)"/>
<path style="fill-rule:nonzero;fill:rgb(33.333333%,65.098039%,96.862745%);fill-opacity:1;stroke-width:1;stroke-linecap:butt;stroke-linejoin:miter;stroke:rgb(33.333333%,65.098039%,96.862745%);stroke-opacity:1;stroke-miterlimit:4;" d="M 116.49625 104.010156 L 116.99875 117.995938 L 52.00875 117.497188 L 115.99375 116.998438 Z M 116.49625 104.010156 " transform="matrix(0.186567,0,0,0.18797,0,0)"/>
<path style="fill-rule:nonzero;fill:rgb(33.333333%,65.098039%,96.862745%);fill-opacity:1;stroke-width:1;stroke-linecap:butt;stroke-linejoin:miter;stroke:rgb(33.333333%,65.098039%,96.862745%);stroke-opacity:1;stroke-miterlimit:4;" d="M 122.505312 106.005156 L 123.007812 118.494688 L 122.002812 118.494688 Z M 122.505312 106.005156 " transform="matrix(0.186567,0,0,0.18797,0,0)"/>
<path style="fill-rule:nonzero;fill:rgb(33.333333%,65.098039%,96.862745%);fill-opacity:1;stroke-width:1;stroke-linecap:butt;stroke-linejoin:miter;stroke:rgb(33.333333%,65.098039%,96.862745%);stroke-opacity:1;stroke-miterlimit:4;" d="M 18.50875 123.004219 L 40.995625 123.502969 L 18.50875 124.001719 Z M 18.50875 123.004219 " transform="matrix(0.186567,0,0,0.18797,0,0)"/>
<path style="fill-rule:nonzero;fill:rgb(33.333333%,65.098039%,96.862745%);fill-opacity:1;stroke-width:1;stroke-linecap:butt;stroke-linejoin:miter;stroke:rgb(33.333333%,65.098039%,96.862745%);stroke-opacity:1;stroke-miterlimit:4;" d="M 49.49625 123.004219 L 118.00375 123.502969 L 49.49625 124.001719 Z M 49.49625 123.004219 " transform="matrix(0.186567,0,0,0.18797,0,0)"/>
<path style="fill-rule:nonzero;fill:rgb(0.784314%,48.235294%,95.294118%);fill-opacity:1;stroke-width:1;stroke-linecap:butt;stroke-linejoin:miter;stroke:rgb(0.784314%,48.235294%,95.294118%);stroke-opacity:1;stroke-miterlimit:4;" d="M 85.50875 14.006563 C 89.69625 12.863594 92.37625 13.196094 93.506875 15.004063 L 119.490312 15.004063 L 122.002812 17.497813 L 122.002812 97.505625 C 123.86625 98.690156 124.20125 101.370938 123.007812 105.506406 L 122.002812 106.503906 L 122.002812 120.489688 L 119.490312 123.004219 L 49.49625 123.004219 C 48.302812 124.874531 45.64375 125.207031 41.498125 124.001719 L 40.493125 123.004219 L 16.49875 123.004219 L 14.007187 120.489688 L 14.007187 79.509062 C 12.206562 78.366094 11.871562 75.706094 13.002187 71.508281 L 14.007187 70.49 L 14.007187 29.509375 C 12.206562 28.366406 11.871562 25.706406 13.002187 21.508594 L 14.007187 17.497813 L 16.49875 15.004063 L 84.50375 15.004063 Z M 18.990312 19.991563 L 18.990312 23.004844 L 73.009062 44.991406 L 82.99625 22.007344 L 82.99625 19.991563 Z M 91.999375 19.991563 L 68.005 76.994531 L 116.99875 96.009375 L 116.99875 19.991563 Z M 19.995312 31.005625 L 18.990312 74.002031 L 56.007812 88.008594 L 69.994062 50.997188 Z M 18.990312 82.002813 L 18.990312 117.995938 L 43.989687 117.995938 L 52.992812 96.009375 Z M 64.99 83.997813 L 52.00875 117.995938 L 116.99875 117.995938 L 116.99875 104.010156 L 70.999062 84.995313 Z M 64.99 83.997813 " transform="matrix(0.186567,0,0,0.18797,0,0)"/>
</g>
</svg>

<svg xmlns="http://www.w3.org/2000/svg" width="25" height="25"><path d="M15.494 15.004 14.51 17ZM120.495 15.004 121.5 17ZM68.507 50.997l.985 1.995ZM14.51 121.01l.984 1.994ZM121.5 121.01l-1.005 1.994Zm0 0" style="fill-rule:nonzero;fill:#cbe3fc;fill-opacity:1;stroke-width:1;stroke-linecap:butt;stroke-linejoin:miter;stroke:#cbe3fc;stroke-opacity:1;stroke-miterlimit:4" transform="scale(.18657 .18797)"/><path d="M0 0h134v133H0Zm18.006 14.007-2.01.997-2.994 3.99v100.997l1.005 2.016 4 1.995h101.002l1.989-.998 2.01-3.013V18.994L122.003 17l-2.994-2.992Zm0 0" style="fill-rule:nonzero;fill:#fff;fill-opacity:1;stroke-width:1;stroke-linecap:butt;stroke-linejoin:miter;stroke:#fff;stroke-opacity:1;stroke-miterlimit:4" transform="scale(.18657 .18797)"/><path d="m19.995 21.01 61.996.499-9.484 22.485-52.512-20.99ZM90.994 21.01h25V94.99L69.01 76.995ZM20.498 32.003 65.493 50l3.517 2.493L56.008 86.99l-25.502-8.998-10.51-5.486ZM19.995 83 52.01 94.991l-8.02 22.007H19.996ZM64.99 84.995h3.517l47.487 19.015v12.49l-.503.498H52.993Zm0 0" style="fill-rule:nonzero;fill:#fff;fill-opacity:1;stroke-width:1;stroke-linecap:butt;stroke-linejoin:miter;stroke:#fff;stroke-opacity:1;stroke-miterlimit:4" transform="scale(.18657 .18797)"/><path d="m18.509 14.007 66.497.498-66.497.5ZM93.507 14.007l24.497.498-24.497.5ZM122.505 18.994l.503 78.512h-1.005ZM18.99 19.992h63.504l.502 1.517-1.486-.5H20.498l-.503 1.497.503 1.496ZM91.497 19.992h25.502v76.017l-1.99-.52.985-.997V21.01H91.497l-1.005.997ZM13.505 28.99l.502 41.5h-1.005ZM19.493 31.006l.502 42.497H18.99ZM73.49 42.996l-.983 1.995ZM13.505 79.01l.502 39.485h-1.005ZM19.493 82.003l.502 34.995 23.995.5-25 .498ZM116.496 104.01l.503 13.986-64.99-.499 63.985-.499ZM122.505 106.005l.503 12.49h-1.005ZM18.509 123.004l22.487.499-22.487.499ZM49.496 123.004l68.508.499-68.508.499Zm0 0" style="fill-rule:nonzero;fill:#55a6f7;fill-opacity:1;stroke-width:1;stroke-linecap:butt;stroke-linejoin:miter;stroke:#55a6f7;stroke-opacity:1;stroke-miterlimit:4" transform="scale(.18657 .18797)"/><path d="M85.509 14.007c4.187-1.143 6.867-.81 7.998.997h25.983l2.513 2.494v80.008c1.863 1.184 2.198 3.865 1.005 8l-1.005.998v13.986l-2.513 2.514H49.496c-1.193 1.87-3.852 2.203-7.998.998l-1.005-.998H16.5l-2.492-2.514V79.51c-1.8-1.144-2.135-3.804-1.005-8.002l1.005-1.018V29.51c-1.8-1.144-2.135-3.804-1.005-8.001l1.005-4.011 2.492-2.494h68.005ZM18.99 19.992v3.013L73.01 44.99l9.986-22.984v-2.015Zm73.01 0L68.004 76.995l48.994 19.014V19.992ZM19.994 31.006 18.99 74.002l37.018 14.007 13.986-37.012ZM18.99 82.003v35.993h25l9.003-21.987Zm46 1.995-12.981 33.998h64.99V104.01l-46-19.015Zm0 0" style="fill-rule:nonzero;fill:#027bf3;fill-opacity:1;stroke-width:1;stroke-linecap:butt;stroke-linejoin:miter;stroke:#027bf3;stroke-opacity:1;stroke-miterlimit:4" transform="scale(.18657 .18797)"/></svg>
